X: 1817
T: The Quandering Whistler
C:Terry McGee, Malua Bay, NSW
B: australian traditional tunes wiki
M:2/4
L:1/8
R: Set Tune
Q: 1/4=100
K:D
V:1 
|:"D"f/e/d AF|"A"Ge ed/e/|ec AG|"D"Fdd2|f/e/d AF|"A"Ge ed/e/|ec AB/c/|"D"d2d2:|
|:"D"af/a/ "G"bb|"A"a/b/a/g/ "D"f/e/d|af/a/ "G"bb|"A"a/b/a/g/ "D"f/e/d|"Em"ef/e/ "A"dc|"D"dfa2|"Em"ef/e/ "A"dc|"D"d2d2:|
% abcbook-tune_id 6342d53a73787fe31fc085b1


% abcbook-boost 0
% abcbook-tablature 
% abcbook-transpose 
% abcbook-lastupdated 1665324385705
% abcbook-soundfonts 
% abcbook-repeats 1
% NFF Book 2016

